X: 5
T: Pirrevals med Kæde
B:[[Notböcker/Melodier til gamle danske Almuedanse for Violin solo]]
O:Danmark
Z:Søren Bak Vestergaard
M: 2/4
L: 1/8
K: G
(BA) .G.F|GD B,D|(BA) .G.F|GD B,D|(cA) .F.D|(cA) .F.D|GB AF|G2 z2:|
|:B2 Bc|d2 bg|(.g2.e2)|d4|c2 B2|e2 d2|F2 FA|G2 z2:|

